lib/typescript/assets/images/icons/exclamation-triangle.svg

<svg xmlns="http://www.w3.org/2000/svg" width="24" height="24" viewBox="0 0 24 24">
  <path d="M12.5,23 C6.70101013,23 2,18.2989899 2,12.5 C2,6.70101013 6.70101013,2 12.5,2 C18.2989899,2 23,6.70101013 23,12.5 C23,18.2989899 18.2989899,23 12.5,23 Z M12.5,22 C17.7467051,22 22,17.7467051 22,12.5 C22,7.25329488 17.7467051,3 12.5,3 C7.25329488,3 3,7.25329488 3,12.5 C3,17.7467051 7.25329488,22 12.5,22 Z M13,12.5 C13,12.7761424 12.7761424,13 12.5,13 C12.2238576,13 12,12.7761424 12,12.5 L12,8.5 C12,8.22385763 12.2238576,8 12.5,8 C12.7761424,8 13,8.22385763 13,8.5 L13,12.5 Z M12,15 L13,15 L13,16 L12,16 L12,15 Z"/>
</svg>

<svg xmlns="http://www.w3.org/2000/svg" width="24" height="24"><path d="M12.5 23C6.701 23 2 18.299 2 12.5S6.701 2 12.5 2 23 6.701 23 12.5 18.299 23 12.5 23zm0-1a9.5 9.5 0 1 0 0-19 9.5 9.5 0 0 0 0 19zm.5-9.5a.5.5 0 1 1-1 0v-4a.5.5 0 1 1 1 0v4zM12 15h1v1h-1v-1z"/></svg>
